X:168
T: ES WAREN DREI GESELLEN
N: E1305A
O: Europa, Mitteleuropa, Deutschland
R: Staende -, Soldaten - Lied, Reiter
M: 2/4
L: 1/8
K: G
D | G2FE | D2B2 | A2G2 | A2G
D | G2FE | D2B2 | A2G2 | A2G
d | BBBB | B2B
d | edcB | A2z
G | FAAA | d3
c | BBAA | G2z

@@@ Tune index: 4852
